{
  "type": "map",
  "tiledversion": "1.11.2",
  "version": "1.10",
  "orientation": "orthogonal",
  "renderorder": "right-down",
  "width": 30,
  "height": 20,
  "tilewidth": 16,
  "tileheight": 16,
  "infinite": false,
  "nextlayerid": 3,
  "nextobjectid": 12,
  "tilesets": [
    {
      "firstgid": 1,
      "name": "snowy-wasteland-preview-a",
      "tilewidth": 16,
      "tileheight": 16,
      "tilecount": 880,
      "columns": 40,
      "image": "../vendor/snowy-wasteland-preview-a.png",
      "imagewidth": 640,
      "imageheight": 352
    }
  ],
  "layers": [
    {
      "id": 1,
      "name": "Ground",
      "type": "tilelayer",
      "visible": true,
      "opacity": 1,
      "x": 0,
      "y": 0,
      "width": 30,
      "height": 20,
      "data": [
        3,
        1,
        1,
        1,
        1,
        1,
        1,
        816,
        816,
        1,
        1,
        3,
        1,
        1,
        1,
        816,
        816,
        1,
        1,
        1,
        1,
        1,
        3,
        816,
        816,
        1,
        1,
        1,
        1,
        1,
        1,
        1,
        1,
        1,
        1,
        1,
        1,
        816,
        816,
        1,
        3,
        1,
        1,
        1,
        1,
        816,
        816,
        1,
        1,
        1,
        1,
        3,
        1,
        816,
        816,
        1,
        1,
        1,
        1,
        1,
        1,
        407,
        1,
        1,
        1,
        1,
        1,
        816,
        816,
        3,
        1,
        1,
        407,
        1,
        1,
        816,
        816,
        1,
        1,
        1,
        3,
        1,
        1,
        816,
        816,
        1,
        1,
        1,
        1,
        1,
        1,
        1,
        1,
        1,
        1,
        1,
        1,
        816,
        816,
        407,
        1,
        1,
        1,
        1,
        1,
        816,
        816,
        1,
        1,
        3,
        1,
        1,
        1,
        816,
        816,
        1,
        1,
        1,
        407,
        1,
        1,
        1,
        1,
        407,
        1,
        1,
        1,
        816,
        816,
        1,
        1,
        1,
        1,
        1,
        1,
        816,
        816,
        1,
        407,
        1,
        1,
        1,
        1,
        816,
        816,
        1,
        1,
        1,
        1,
        3,
        1,
        1,
        1,
        1,
        1,
        1,
        3,
        816,
        816,
        1,
        1,
        1,
        1,
        1,
        1,
        816,
        816,
        3,
        1,
        1,
        1,
        1,
        1,
        816,
        816,
        1,
        763,
        1,
        3,
        1,
        1,
        1,
        1,
        1,
        1,
        3,
        1,
        816,
        816,
        1,
        1,
        763,
        1,
        1,
        1,
        816,
        816,
        1,
        1,
        1,
        1,
        1,
        1,
        816,
        816,
        1,
        1,
        3,
        1,
        1,
        1,
        1,
        1,
        1,
        3,
        1,
        1,
        816,
        816,
        1,
        1,
        1,
        1,
        1,
        1,
        816,
        816,
        1,
        1,
        1,
        1,
        1,
        1,
        816,
        816,
        1,
        3,
        1,
        1,
        1,
        1,
        1,
        1,
        3,
        1,
        775,
        1,
        816,
        816,
        1,
        1,
        1,
        1,
        775,
        3,
        816,
        816,
        1,
        1,
        1,
        1,
        775,
        1,
        816,
        816,
        3,
        1,
        1,
        1,
        1,
        323,
        323,
        3,
        323,
        323,
        323,
        323,
        323,
        323,
        323,
        323,
        323,
        323,
        3,
        323,
        323,
        323,
        323,
        323,
        323,
        323,
        323,
        323,
        323,
        323,
        323,
        323,
        323,
        323,
        323,
        323,
        3,
        323,
        323,
        323,
        323,
        323,
        323,
        323,
        323,
        323,
        323,
        3,
        323,
        323,
        323,
        323,
        323,
        323,
        323,
        323,
        323,
        323,
        323,
        323,
        323,
        323,
        323,
        323,
        323,
        3,
        1,
        1,
        1,
        1,
        1,
        1,
        816,
        816,
        1,
        1,
        3,
        1,
        1,
        1,
        816,
        816,
        1,
        1,
        1,
        1,
        1,
        3,
        816,
        816,
        1,
        1,
        518,
        1,
        1,
        1,
        1,
        1,
        1,
        1,
        1,
        1,
        816,
        816,
        1,
        3,
        1,
        1,
        1,
        1,
        816,
        816,
        1,
        1,
        1,
        1,
        3,
        1,
        816,
        816,
        1,
        1,
        1,
        1,
        1,
        1,
        1,
        1,
        1,
        763,
        1,
        1,
        816,
        816,
        3,
        1,
        1,
        1,
        1,
        1,
        816,
        816,
        1,
        1,
        1,
        3,
        1,
        1,
        816,
        816,
        1,
        1,
        1,
        1,
        1,
        1,
        1,
        1,
        1,
        1,
        1,
        1,
        816,
        816,
        1,
        1,
        1,
        1,
        1,
        1,
        816,
        816,
        1,
        763,
        3,
        1,
        1,
        1,
        816,
        816,
        1,
        1,
        1,
        1,
        1,
        1,
        1,
        1,
        1,
        1,
        407,
        1,
        816,
        816,
        1,
        1,
        1,
        1,
        1,
        1,
        816,
        816,
        1,
        3,
        1,
        1,
        1,
        1,
        816,
        816,
        407,
        1,
        1,
        1,
        3,
        1,
        1,
        1,
        1,
        1,
        1,
        3,
        816,
        816,
        1,
        407,
        1,
        1,
        1,
        1,
        816,
        816,
        3,
        1,
        407,
        1,
        1,
        1,
        816,
        816,
        1,
        1,
        1,
        3,
        1,
        1,
        1,
        1,
        1,
        1,
        3,
        1,
        816,
        816,
        1,
        1,
        1,
        1,
        1,
        1,
        816,
        816,
        1,
        1,
        1,
        1,
        1,
        1,
        816,
        816,
        1,
        1,
        727,
        1,
        1,
        1,
        1,
        1,
        1,
        3,
        1,
        1,
        816,
        816,
        1,
        1,
        1,
        1,
        1,
        1,
        816,
        816,
        1,
        1,
        1,
        1,
        1,
        1,
        816,
        816,
        1,
        3,
        1,
        1,
        1,
        1,
        1,
        1,
        3,
        1,
        1,
        1,
        816,
        816,
        1,
        1,
        1,
        1,
        1,
        3,
        816,
        816,
        1,
        1,
        1,
        1,
        1,
        1,
        816,
        816,
        3,
        1,
        1,
        1,
        1
      ]
    },
    {
      "id": 2,
      "name": "Objects",
      "type": "objectgroup",
      "visible": true,
      "opacity": 1,
      "x": 0,
      "y": 0,
      "objects": [
        {
          "id": 1,
          "name": "bridge-1",
          "type": "bridge-trigger",
          "x": 112,
          "y": 144,
          "width": 32,
          "height": 32
        },
        {
          "id": 2,
          "name": "bridge-2",
          "type": "bridge-trigger",
          "x": 240,
          "y": 144,
          "width": 32,
          "height": 32
        },
        {
          "id": 3,
          "name": "bridge-3",
          "type": "bridge-trigger",
          "x": 368,
          "y": 144,
          "width": 32,
          "height": 32
        },
        {
          "id": 10,
          "name": "turbo-start",
          "type": "spawn",
          "x": 32,
          "y": 160,
          "width": 16,
          "height": 16
        },
        {
          "id": 11,
          "name": "family",
          "type": "goal",
          "x": 448,
          "y": 160,
          "width": 16,
          "height": 16
        }
      ]
    }
  ]
}